X:1
T:A minor Abraham Wood, 1793
T:Isaac Watts, 1706 Hope in Darkness
T:Lancaster
T:Transcribed from The Columbian Harmony, 1793.
%%score [ 1 2 3 4 ]
L:1/8
Q:1/4=120
M:3/2
K:C
V:1 treble nm="Treble" snm="Tr."
V:2 treble nm="Counter" snm="C."
V:3 treble-8 nm="Tenor" snm="T."
V:4 bass nm="Bass" snm="B."
V:1
 z4 | z12 | z12 | z12 | z8 c4 |[M:4/4] c2 c2 c2 B2 | (c2 A2) ^G4 | A8 ||[Q:1/4=80] e2 cA B>G AB | %9
w: ||||Yet|will I seek thy|smi- * ling|face;|What tho' a short e- clipse his|
 cABG A4 | c2 ee e>e ee | e2 B>c d3 d | (e2 dc/B/ cB/A/ B)d | (B2 c)B B4 ||[Q:1/4=120] z4 c4 | %15
w: beau- * * ties shroud,|What tho' a short e- clipse his|beau- ties * shroud, his|beau- * * * * * * * ties,|beau- * ties shroud,|And|
 B6 B2 | A2 BA G2 GF | E8 | z8 | z8 | z8 | z8 | z8 | z8 | z8 | z8 | (e2 B2) c2 B2 | A6 A>B | %28
w: bar the|in- fluence * of his *|rays,|||||||||He * is my|sun, tho' *|
 c2 B2 c2 d2 | e6 z2 | z8 | z4 z2 c2 | B2 B2 A2 A2 | ^G8 | c4 e2 d2 | (e3 d c2) d2 | Bd cB A2 ^G2 | %37
w: he re- fuse to|shine,||tho'|he re- fuse to|shine;|He is my|sun,~ _ _ tho'|he * re- * fuse to|
 A8 |:[M:2/4] z2 A2 | c2 c2 | c2 B2 | B2 B2 | B2 cd | e2 e2 | d2 d2 | c2 B2 |[M:4/4] c6 d2 | %47
w: shine.|Tho'|for a|mo- ment|he de-|part, I *|dwell for|ev- er|on his|heart, For|
 e2 dc B2 B2 | A8 :| %49
w: ev- er * he on|mine.|
V:2
 z4 | z12 | z12 | z12 | z8 G4 |[M:4/4] E2 E2 E2 G2 | E4 E4 | E8 || z8 | z8 | z8 | A2 EE F>E DD | %12
w: |||||||||||What tho' a short e- clipse his|
 G3 G E>F GA | E3 ^F G4 || z4 E4 | G6 G2 | E2 E2 D2 D2 | E8 | E4 E2 F2 | G6 F2 | EFED C4 | %21
w: beau- ties shroud,~ _ _ his|beau- ties shoud,|And|bar the|in- fluence of his|rays,|'Tis but a|mor- ning|va- * * * por|
 E2 F2 G2 F2 | (EFED E4) | z8 | z8 | (A2 E2) F2 E>D | G6 G2 | G2 G2 E2 E2 | E6 z2 | z8 | z4 z2 E2 | %31
w: or a sum- mer|cloud,~ _ _ _ _|||He * is my *|sun, tho'|he re- fuse to|shine,||tho'|
 E2 E2 E2 E2 | G2 G2 F2 E2 | E8 | E4 E2 F2 | G6 G2 | G2 E2 F2 E2 | E8 |:[M:2/4] z2 A2 | A2 A2 | %40
w: he re- fuse, tho'|he re- fuse to|shine.|||||||
 A2 G2 | G2 G2 | G2 GF | E2 E2 | G2 G>F | E>F G2 |[M:4/4] G6 F2 | E2 F2 E2 E2 | E8 :| %49
w: |||||||||
V:3
 z4 | z12 | z8 c4 | B2 A2 B2 ^G2 A2 c2 | B8 e4 |[M:4/4] cB A2 ce d2 | c4 B4 | A8 || z8 | z8 | %10
w: ||Yet|will I seek thy smi- ling|face, Yet|will * I seek * thy|smi- ling|face.|||
 e2 cA B>G AB | cABG A4 | c2 BB c>d ef | gfe^d e4 || z4 c4 | e6 d2 | c2 BA d2 B2 | c8 | z8 | z8 | %20
w: What tho' a short e- clipse his|beau- * * ties shroud,|What tho' a short e- clipse his|beau- * * ties shroud,|And|bar the|in- fluence * of his|rays,|||
 z8 | z8 | z8 | z8 | (e2 B2) c2 B2 | A6 A>B | c2 B2 c2 d2 | e6 z2 | z4 z2 B2 | c2 c2 c2 e2 | %30
w: ||||He * is my|sun, tho' *|he re- fuse to|shine,|tho'|he re- fuse, tho'|
 d2 d2 d2 c2 | B6 A2 | G2 G2 A2 A2 | B8 | (e2 d2) cB A2 | (c3 d e2) e2 | dB ce dc B2 | A8 |: %38
w: he re- fuse to|shine, tho'|he re- fuse to|shine.|He * is * my|sun,~ _ _ tho'|he * re- * fuse * to|shine.|
[M:2/4] z2 c2 | e2 e2 | e2 e2 | d2 d2 | d2 ed | c2 c2 | B2 B2 | c2 d2 |[M:4/4] e6 d2 | %47
w: Tho'|for a|mo- ment|he de-|part, I *|dwell for|ev- er|on his|heart, For|
 cB A2 ^G2 G2 | A8 :| %49
w: ev- * er he on|mine.|
V:4
 (A,,2 B,,2) | (C,4 D,4) E,4 | A,,8 A,4 | E,2 F,2 E,2 E,2 D,2 A,,2 | E,8 C,4 | %5
w: Yet, *|gra- * cious|God, *|||
[M:4/4] C,2 C,2 C,2 G,2 | A,4 E,4 | A,,8 || z8 | A,2 E,E, F,>E, D,D, | A,,3 A,, E,4 | %11
w: ||||What tho' a short e- clipse his|beau- ties shroud,|
 A,,2 E,E, D,>D, D,D, | (C,2 D,E, A,G,/F,/ E,D, | E,F,/G,/ A,)B, E,4 || z4 A,4 | E,6 G,2 | %16
w: What tho' a short e- clipse his|beau- * * * * * * *|* * * * ties shroud,|||
 C,>D, E,F, G,2 G,,2 | C,8 | z8 | z8 | z8 | z8 | z8 | (A,2 E,2) F,2 D,2 | E,6 E,2 | %25
w: |||||||He * is my|sun, tho'|
 A,,2 A,,2 A,,2 A,,2 | E,6 G,2 | C2 C2 CB, A,2 | E,6 D,2 | C,2 C,2 C,2 C,2 | G,6 A,2 | %31
w: he re- fuse to|shine, tho'|he re- fuse * to|shine, tho'|he re- fuse to|shine, tho'|
 E,2 E,2 E,2 A,,2 | E,2 E,2 D,2 A,,2 | E,8 | (A,,2 B,,2) C,2 D,2 | C,6 C,2 | G,2 A,2 D,2 E,2 | %37
w: he re- fuse, tho'|he re- fuse to|shine.||||
 A,,8 |:[M:2/4] z2 A,2 | A,2 A,2 | A,2 E,2 | G,2 G,2 | G,2 C,2 | C,2 C,2 | G,2 G,2 | A,2 G,2 | %46
w: |||||||||
[M:4/4] C,6 B,,2 | C,2 D,2 E,2 E,2 | %48
w: ||
"^_________________________________________\nEdited by B. C. Johnston, 2016\n  1. Measure 14, \nCounter\n:  F changed to F#, as in \nTenor\n.\n  2. Measure 17, \nCounter\n:  two D# changed to D, as in \nTenor\n.\n  3. Measure 33, Tenor:   two G# changed to G, as in Counter." A,,8 :| %49
w: |

